src/64x64/places/folder-gruvbox-material-blue-mail.svg

<?xml version="1.0" encoding="UTF-8"?>
<svg width="64" height="64" version="1" xmlns="http://www.w3.org/2000/svg">
 <rect x="4" y="22" width="56" height="36" rx="2.8" ry="2.8" opacity=".2"/>
 <path d="m4 46.2c0 1.551 1.2488 2.8 2.8 2.8h50.4c1.551 0 2.8-1.249 2.8-2.8v-30.4c0-1.551-1.249-2.8-2.8-2.8h-25.2c-4.2 0-5.6-6-9.8-6h-15.4c-1.5512 0-2.8 1.2488-2.8 2.8" fill="#45707a"/>
 <rect x="4" y="20" width="56" height="36" rx="2.8" ry="2.8" opacity=".2"/>
 <rect x="8" y="16" width="48" height="22" rx="2.8" ry="2.8" fill="#d9e1cc"/>
 <rect x="4" y="21" width="56" height="36" rx="2.8" ry="2.8" fill="#7daea3"/>
 <path d="m6.8008 7c-1.5512 0-2.8008 1.2496-2.8008 2.8008v1.0002c0-1.5514 1.2496-2.801 2.8008-2.801h15.398c4.2 0 5.601 6 9.801 6h25.199c1.551 0 2.801 1.25 2.801 2.801v-1c0-1.551-1.25-2.801-2.801-2.801h-25.199c-4.2 0-5.601-6-9.801-6z" fill="#d9e1cc" opacity=".1"/>
 <path d="m32 27c-6.627 0-12 5.373-12 12s5.373 12 12 12h7.5s1.406-0.601 1.5-2.101c0-1.5-1.5-1.899-1.5-1.899h-7.5c-0.39-3e-3 -0.779-0.034-1.165-0.094-1.399-0.159-2.511-0.598-3.351-1.304l-0.012-8e-3c-2.173-1.492-3.472-3.958-3.473-6.594 0-4.418 3.582-8 8-8 4.419 0 8 3.582 8 8-1e-3 0.908-0.185 1.49-0.48 2.004-7e-3 0-0.013-4e-3 -0.02-4e-3h-1.867c0.223-0.628 0.367-1.295 0.367-2 0-3.314-2.686-6-6-6-3.313 0-6 2.686-6 6s2.686 6 6 6h7.5c1.083-0.1 1.845-0.743 2.539-1.152 1.525-1.088 1.962-2.621 1.962-4.848 0-6.627-5.373-12-12-12zm0 10c1.104 0 2 0.896 2 2 0 1.105-0.896 2-2 2-1.105 0-2-0.895-2-2 0-1.104 0.895-2 2-2z" fill="#404946"/>
</svg>

<svg xmlns="http://www.w3.org/2000/svg" width="64" height="64" version="1">
 <rect style="opacity:0.2" width="56" height="36" x="4" y="22" rx="2.8" ry="2.8"/>
 <path style="fill:#45707a" d="M 4,46.2 C 4,47.751 5.2488,49 6.8,49 H 57.2 C 58.751,49 60,47.751 60,46.2 V 15.8 C 60,14.249 58.751,13 57.2,13 H 32 C 27.8,13 26.4,7 22.2,7 H 6.8 C 5.2488,7 4,8.2488 4,9.8"/>
 <rect style="opacity:0.2" width="56" height="36" x="4" y="20" rx="2.8" ry="2.8"/>
 <rect style="fill:#d9e1cc" width="48" height="22" x="8" y="16" rx="2.8" ry="2.8"/>
 <rect style="fill:#7daea3" width="56" height="36" x="4" y="21" rx="2.8" ry="2.8"/>
 <path style="opacity:0.1;fill:#d9e1cc" d="M 6.8008,7 C 5.2496,7 4,8.2496 4,9.8008 V 10.801 C 4,9.2496 5.2496,8 6.8008,8 H 22.199 C 26.399,8 27.8,14 32,14 H 57.199 C 58.75,14 60,15.25 60,16.801 V 15.801 C 60,14.25 58.75,13 57.199,13 H 32 C 27.8,13 26.399,7 22.199,7 Z"/>
 <path style="fill:#404946" d="M 32,27 C 25.373,27 20,32.373 20,39 20,45.627 25.373,51 32,51 H 39.5 C 39.5,51 40.906,50.399 41,48.899 41,47.399 39.5,47 39.5,47 H 32 C 31.61,46.997 31.221,46.966 30.835,46.906 29.436,46.747 28.324,46.308 27.484,45.602 L 27.472,45.594 C 25.299,44.102 24,41.636 23.999,39 23.999,34.582 27.581,31 31.999,31 36.418,31 39.999,34.582 39.999,39 39.998,39.908 39.814,40.49 39.519,41.004 39.512,41.004 39.506,41 39.499,41 H 37.632 C 37.855,40.372 37.999,39.705 37.999,39 37.999,35.686 35.313,33 31.999,33 28.686,33 25.999,35.686 25.999,39 25.999,42.314 28.685,45 31.999,45 H 39.499 C 40.582,44.9 41.344,44.257 42.038,43.848 43.563,42.76 44,41.227 44,39 44,32.373 38.627,27 32,27 Z M 32,37 C 33.104,37 34,37.896 34,39 34,40.105 33.104,41 32,41 30.895,41 30,40.105 30,39 30,37.896 30.895,37 32,37 Z"/>
</svg>
